X: 36136
T: Scotch Cap
R: jig
M: 6/8
K: Ddorian
|:z|D2 D d2 d|e2 d c2 A|B2 e B2 G|B3 d2:|
|:d/e/|f2 A A2 d/e/|f2 A A2 d/ e/|f2 A A2 F|A3 d3|
B2 B A2 F|G2 G d2 d|B2 B A F2|E3 D2:|

